svg/fluentui-system-icons/ic_fluent_eraser_small_24_regular.svg

<svg width="24" height="24" viewBox="0 0 24 24" fill="none" xmlns="http://www.w3.org/2000/svg">
<path d="M15.8408 2.66117C14.9677 1.77057 13.5367 1.76012 12.6507 2.63787L3.05225 12.1464C2.16084 13.0295 2.16399 14.4711 3.05923 15.3502L8.15829 20.3577C9.04247 21.226 10.4623 21.2159 11.334 20.3351L13.1187 18.5317C13.0409 18.2003 12.9998 17.8547 12.9998 17.4995C12.9998 17.1119 13.0488 16.7357 13.1409 16.3768L12.7911 16.7303L6.70254 10.6417L13.7063 3.70351C14.0017 3.41093 14.4787 3.41441 14.7697 3.71128L19.6798 8.71954C19.9666 9.01216 19.9655 9.48088 19.6773 9.77216L16.3318 13.1526C16.7043 13.0528 17.0958 12.9995 17.4998 12.9995C17.8387 12.9995 18.1688 13.037 18.4863 13.108L20.7434 10.8273C21.6082 9.95347 21.6115 8.54731 20.7509 7.66943L15.8408 2.66117ZM5.6369 11.6974L11.736 17.7965L10.2679 19.2799C9.97731 19.5735 9.50402 19.5769 9.20929 19.2875L4.11024 14.28C3.81182 13.9869 3.81078 13.5064 4.10791 13.2121L5.6369 11.6974ZM17.6025 14.001C19.488 14.0554 20.9998 15.6009 20.9998 17.4995C20.9998 19.4325 19.4328 20.9995 17.4998 20.9995C15.6134 20.9995 14.0755 19.5072 14.0025 17.6387C14.0008 17.5964 13.9999 17.5538 13.9998 17.5111C13.9998 17.5073 13.9998 17.5034 13.9998 17.4995C13.9998 15.5665 15.5668 13.9995 17.4998 13.9995C17.5341 13.9995 17.5684 14 17.6025 14.001Z" fill="#212121"/>
</svg>

<svg xmlns="http://www.w3.org/2000/svg" width="24" height="24"><path d="M15.84 2.661a2.25 2.25 0 0 0-3.19-.023l-9.598 9.508a2.25 2.25 0 0 0 .007 3.204l5.1 5.008a2.25 2.25 0 0 0 3.175-.023l1.785-1.803a4.512 4.512 0 0 1 .022-2.155l-.35.353-6.088-6.088 7.003-6.938a.75.75 0 0 1 1.064.007l4.91 5.009a.75.75 0 0 1-.003 1.052l-3.345 3.38a4.507 4.507 0 0 1 2.154-.044l2.257-2.28a2.25 2.25 0 0 0 .008-3.159l-4.91-5.008ZM5.638 11.697l6.099 6.1-1.468 1.483a.75.75 0 0 1-1.059.008l-5.1-5.008a.75.75 0 0 1-.002-1.068l1.529-1.515Zm11.965 2.304A3.5 3.5 0 1 1 14 17.511V17.5a3.5 3.5 0 0 1 3.602-3.5Z"/></svg>
